!!!!SEGMENT: pl-kk--kk-i-2--011-004_pacelli-asprilio--missa-ave-maris-stella-sanctus.krn
!!!cenid: 16xx:1619
!!!COM: Pacelli, Asprilio
!!!COM-rismID: pe30009570
!!!CDT: 1570-1623/05/04
!!!CNT: Italian
!!!OPR: Missa Ave Maris Stella
!!!OTL: Sanctus
!!!OMV: 004
!!!PDT:
!!!AGN: Sacred; Mass
!!!SMS-siglum: PL-Kk
!!!SMS-shelfmark: Kk.I.2
!!!SMS-shelfwork: 011-004 M
!!!NIFC-rismSourceID: 300258027
!!!NIFC-islandoraID: pl-kk:750
!!!URL-pdf-islandora: https://repozytorium.nifc.pl/islandora/object/pl-kk%3A750/datastream/PDF/view
!!!URL-scan: https://polish.musicsources.pl/pl/lokalizacje/galeria/rekopisy/5828 @EN{Scan on Polish Music Sources Website} @PL{Skany w portalu Dziedzictwo Muzyki Polskiej w otwartym dostępie}
!!!ONB-nifc: Części mszy: Kyrie, Gloria, Credo, Sanctus, Agnus Dei; skany: C: 0031-0032; A: 0131; T: 0235; B: 0332-0333;
!!!AIN: 1 alto 1 bass 2 tenor
!!!key: d:dor
**kern	**text	**kern	**text	**kern	**text	**kern	**text
*part4	*part4	*part3	*part3	*part2	*part2	*part1	*part1
*staff4	*staff4	*staff3	*staff3	*staff2	*staff2	*staff1	*staff1
*I"BASVS	*	*I"TENOR	*	*I"ALTVS	*	*I"DISCANTVS	*
*I'B	*	*I'T	*	*I'T	*	*I'A	*
*Ibass	*	*Itenor	*	*Itenor	*	*Ialto	*
*ICvox	*	*ICvox	*	*ICvox	*	*ICvox	*
*clefF4	*	*clefC4	*	*clefC4	*	*clefC3	*
*k[]	*	*k[]	*	*k[]	*	*k[]	*
*d:dor	*	*d:dor	*	*d:dor	*	*d:dor	*
*M2/1	*	*M2/1	*	*M2/1	*	*M2/1	*
*met(C|)	*	*met(C|)	*	*met(C|)	*	*met(C|)	*
=1-	=1-	=1-	=1-	=1-	=1-	=1-	=1-
*2\right	*2\right	*2\right	*2\right	*2\right	*2\right	*2\right	*2\right
!!LO:TX:t=P:problem:all\right:global
!!LO:TX:t=P:problem:pierwsza litera zapisana czerwonym atramentem
!	!	!LO:TX:t=P:problem=kreska pseudotaktowa	!	!	!	!LO:TX:t=P:problem=kreska pseudotaktowa	!
00r	.	00r	.	1D	SAn-	1r	.
!	!	!	!	!LO:TX:t=P:problem=kreska pseudotaktowa	!	!	!
.	.	.	.	1A	.	1A	SAn-
=2-	=2-	=2-	=2-	=2-	=2-	=2-	=2-
!	!	!	!	!LO:TX:t=P:problem=#n przed nutą	!	!	!
.	.	.	.	1Bn	.	1d	.
.	.	.	.	2G/	.	2e\	.
!	!	!	!	!LO:TX:t=P:problem=kreska pseudotaktowa	!	!LO:TX:t=P:problem=kreska pseudotaktowa	!
.	.	.	.	2A/	.	2c/	-ctus
=3-	=3-	=3-	=3-	=3-	=3-	=3-	=3-
!LO:TX:t=P:problem=kreska pseudotaktowa	!	!	!	!	!	!	!
1r	.	1D	SAn-	0A	-ctus	4d\	ſan-
.	.	.	.	.	.	4e\	.
.	.	.	.	.	.	4f\	.
.	.	.	.	.	.	4d\	.
*	*	*	*	*	*	*lig	*
1AA	SAn-	1.A	.	.	.	1e	.
=4-	=4-	=4-	=4-	=4-	=4-	=4-	=4-
1D	.	.	.	2r	.	1f	.
*	*	*	*	*	*	*Xlig	*
!	!	!LO:TX:t=P:problem=kreska pseudotaktowa	!	!LO:TX:t=P:problem=kreska pseudotaktowa	!	!	!
.	.	2B\	-ctus	2d\	San-	.	.
2E\	.	2G/	ſan-	2B\	.	2g\	.
!LO:TX:t=P:problem=kreska pseudotaktowa	!	!	!	!	!	!	!
*	*	*lig	*	*	*	*	*
2C/	-ctus	1A\	.	2c\	.	4f\	.
!	!	!	!	!	!	!LO:TX:t=P:problem=kreska pseudotaktowa	!
.	.	.	.	.	.	4e\	.
=5-	=5-	=5-	=5-	=5-	=5-	=5-	=5-
2.D/	ſan-	.	.	1.A	.	1.f	.
*	*	*col	*	*	*	*	*
.	.	2.d\	.	.	.	.	.
4E\	.	.	.	.	.	.	.
2F\	.	.	.	.	.	.	.
*	*	*Xlig	*	*	*	*	*
.	.	4c\	.	.	.	.	.
*	*	*Xcol	*	*	*	*	*
!	!	!LO:TX:t=P:problem=kreska pseudotaktowa	!	!LO:TX:t=P:problem=kreska pseudotaktowa	!	!	!
1G\	.	2B\	.	2G/	.	4e\	.
!	!	!	!	!	!	!LO:TX:t=P:problem=kreska pseudotaktowa	!
.	.	.	.	.	.	4d\	.
=6-	=6-	=6-	=6-	=6-	=6-	=6-	=6-
.	.	1A	-ctus	1.A	.	4e\	.
.	.	.	.	.	.	4d\	.
!LO:TX:t=P:problem=kreska pseudotaktowa	!	!	!	!	!	!	!
2F\	.	.	.	.	.	2.d\	.
*lig	*	*	*	*	*	*	*
1E	.	2B\	ſan-	.	.	.	.
.	.	.	.	.	.	8c/L	.
.	.	.	.	.	.	8B/J	.
!	!	!	!	!	!	!LO:TX:t=P:problem=# below	!
.	.	4A/	.	2G/	.	2c#X/	.
.	.	4G/	.	.	.	.	.
=7-	=7-	=7-	=7-	=7-	=7-	=7-	=7-
!	!	!LO:TX:t=P:problem=kreska pseudotaktowa	!	!	!	!	!
1D	.	1A	.	1F	.	1d	-ctus
*Xlig	*	*	*	*	*	*	*
1AA	-ctus	2A/	.	2E/	-ctus	1e	San-
!	!	!	!	!LO:TX:t=P::problem=kreska pseudotaktowa&colon;między nutą a kropką	!	!	!
.	.	4E/	.	[y2E/	ſan-	.	.
.	.	4F/	.	.	.	.	.
=8-	=8-	=8-	=8-	=8-	=8-	=8-	=8-
!	!	!	!	!LO:N:xstem:cue	!	!LO:TX:t=P::problem=kreska pseudotaktowa&colon;między nutą a kropką	!
2.E\	ſan-	4G/	.	4E/]	.	[<1e	-ctus
.	.	4A/	.	4F/	.	.	.
!	!	!LO:TX:t=P:problem=kreska pseudotaktowa	!	!	!	!	!
.	.	2B\	.	4G/	.	.	.
!LO:TX:t=P:problem=kreska pseudotaktowa	!	!	!	!	!	!	!
4F\	.	.	.	4A/	.	.	.
!	!	!	!	!	!	!LO:N:vis=4:xstem:cue	!
2G\	.	2E/	.	2B\	.	2e]	.
1A\	.	2A/	.	1c\	.	1e\	ſan-
=9-	=9-	=9-	=9-	=9-	=9-	=9-	=9-
.	.	2E/	.	.	.	.	.
*	*	*	*	*	*	*custos:B	*
!	!	!	!	!	!	!LO:LB:g=original	!
!	!	!	!	!LO:TX:t=P::problem=kreska pseudotaktowa&colon;między nutą a kropką	!	!LO:TX:t=P:problem=kreska pseudotaktowa	!
2G\	.	1e	.	[y2B\	.	2B/	-ctus
*lig	*	*	*	*	*	*	*
!	!	!	!	!LO:N:xstem:cue	!	!	!
1F	.	.	.	4B\]	.	2cny/	ſan-
.	.	.	.	4A/	.	.	.
!	!	!LO:TX:t=P:problem=kreska pseudotaktowa	!	!	!	!	!
.	.	2d\	.	1A\	.	4B/	.
.	.	.	.	.	.	4A/	.
=10-	=10-	=10-	=10-	=10-	=10-	=10-	=10-
!LO:TX:t=P:problem=kreska pseudotaktowa	!	!	!	!	!	!	!
1E	.	1e	.	.	.	1B	.
.	.	.	.	2G#X/	.	.	.
*Xlig	*	*	*	*	*	*	*
!	!	!	!	!LO:TX:t=P:problem=kreska pseudotaktowa	!	!	!
!	!	!	!	!	!	!LO:TX:t=P:problem=# below	!
!	!	!LO:TX:t=P:problem=kreska pseudotaktowa	!	!	!	!LO:TX:t=P:problem=kreska pseudotaktowa	!
2AA/	-ctus	1e	-ctus	2A/	-ctus	1c#X	-ctus
*	*	*	*	*custos:A	*	*	*
!	!	!	!	!LO:LB:g=original	!	!	!
1AA/	Do-	.	.	1A\	Do-	.	.
*	*	*custos:A	*	*	*	*	*
=11-	=11-	=11-	=11-	=11-	=11-	=11-	=11-
!	!	!LO:LB:g=original	!	!	!	!	!
.	.	1.A	Do-	.	.	2r	.
!LO:TX:t=P:problem=kreska pseudotaktowa	!	!	!	!LO:TX:t=P:problem=kreska pseudotaktowa	!	!	!
2AA/	-mi-	.	.	2E/	-mi-	1a	Do-
1D	-nus	.	.	4F/	-nus	.	.
.	.	.	.	4Gny/	.	.	.
!	!	!LO:TX:t=P:problem=kreska pseudotaktowa	!	!	!	!LO:TX:t=P:problem=kreska pseudotaktowa	!
.	.	2d\	-mi-	4A/	.	2f\	-mi-
.	.	.	.	4F/	.	.	.
=12-	=12-	=12-	=12-	=12-	=12-	=12-	=12-
2.E\	De-	2B\	-nus	2G/	De-	2e\	-nus
.	.	1c	De-	2G/	-us	2g\	De-
!LO:TX:t=P:problem=kreska pseudotaktowa	!	!	!	!	!	!	!
4F\	.	.	.	.	.	.	.
*custos:G	*	*	*	*lig	*	*	*
!LO:PB:g=original	!	!	!	!	!	!	!
1.G	.	.	.	1d	Sab-	2g\	-us
.	.	4B\	.	.	.	4G/	Sab-
!	!	!	!	!	!	!LO:TX:t=P:problem=kreska pseudotaktowa	!
.	.	4A/	.	.	.	4A/	.
=13-	=13-	=13-	=13-	=13-	=13-	=13-	=13-
.	.	2G/	.	1D	.	4B/	.
.	.	.	.	.	.	4cny/	.
!	!	!LO:TX:t=P:problem=kreska pseudotaktowa	!	!	!	!	!
2F\	-us	2A/	-us	.	.	1d	.
*	*	*	*	*Xlig	*	*	*
1.E	Sa-	4B\	Sab-	1.E	.	.	.
.	.	4A/	.	.	.	.	.
!	!	!LO:TX:t=P:problem=# na kresce taktowej dwie nuty wcześniej	!	!	!	!LO:TX:t=P:problem=niezgodność pionów w takcie	!
.	.	4G#X/	.	.	.	4c/	.
!	!	!	!	!	!	!LO:TX:t=P:problem=kreska pseudotaktowa	!
.	.	4F/	.	.	.	4B/	.
=14-	=14-	=14-	=14-	=14-	=14-	=14-	=14-
!	!	!	!	!	!	!LO:TX:t=P:problem=# below	!
.	.	2G#yX/	.	.	.	2c#X/	.
2E\	-ba-	2G#/	-ba-	2E/	-ba-	2c#/	-ba-
!LO:TX:t=P:problem=kreska pseudotaktowa	!	!LO:TX:t=P:problem=kreska pseudotaktowa	!	!LO:TX:t=P:problem=kreska pseudotaktowa	!	!LO:TX:t=P:problem=kreska pseudotaktowa	!
1D;	-oth	1A	-oth.	1F#X	-oth.	1d	-oth.
=15-	=15-	=15-	=15-	=15-	=15-	=15-	=15-
2r	.	0d	Ple-	1A	Ple-	1.f	Ple-
2.D/	Ple-	.	.	.	.	.	.
.	.	.	.	2.A/	-ni	.	.
4E\	.	.	.	.	.	.	.
4F\	.	.	.	.	.	2d\	-ni
!LO:TX:t=P:problem=kreska pseudotaktowa	!	!	!	!	!	!	!
4D/	.	.	.	4B\	.	.	.
=16-	=16-	=16-	=16-	=16-	=16-	=16-	=16-
2A\	.	1c	-ni	2c\	.	2e\	ſunt
!	!	!	!	!LO:TX:t=P:problem=kreska pseudotaktowa	!	!	!
2A\	-ni	.	.	2A/	ſunt	1e	coe-
2E\	ſunt	1C	ſunt	2.G/	coe-	.	.
!LO:TX:t=P:problem=przekreślona synkopowana wartość	!	!	!	!	!	!	!
1G\	coe-	.	.	.	.	4d\	.
!	!	!	!	!	!	!LO:TX:t=P:problem=kreska pseudotaktowa	!
.	.	.	.	4A/	.	4cny/	.
=17-	=17-	=17-	=17-	=17-	=17-	=17-	=17-
.	.	2r	.	4B\	.	2d\	.
.	.	.	.	4c\	.	.	.
!LO:TX:t=P:problem=przekreślona synkopowana wartość	!	!	!	!	!	!	!
1GG	-li	4Gny/	coe-	2.d\	.	1d	-li
!	!	!LO:TX:t=P:problem=kreska pseudotaktowa	!	!	!	!	!
.	.	4A/	.	.	.	.	.
.	.	4B\	.	.	.	.	.
.	.	4c\	.	4c\	.	.	.
!LO:TX:t=P:problem=kreska pseudotaktowa	!	!	!	!LO:TX:t=P:problem=kreska pseudotaktowa	!	!	!
2GG/	.	2d\	.	2B\	.	2g\	et
=18-	=18-	=18-	=18-	=18-	=18-	=18-	=18-
!	!	!	!	!	!	!LO:TX:t=P:problem=kreska pseudotaktowa	!
2.D/	et	2d\	-li	2A/	-li	1f	ter-
!	!	!	!	!LO:TX:t=P:problem=przekreślona synkopowana wartość	!	!	!
.	.	1A	et	1A	et	.	.
4E\	ter-	.	.	.	.	.	.
*	*	*	*	*	*	*custos:c	*
!	!	!	!	!	!	!LO:LB:g=original	!
1F	.	.	.	.	.	2.c/	.
!	!	!	!	!LO:TX:t=P:problem=przekreślona synkopowana wartość	!	!	!
.	.	2F/	ter-	1c\	ter-	.	.
.	.	.	.	.	.	4d\	.
=19-	=19-	=19-	=19-	=19-	=19-	=19-	=19-
!LO:TX:t=P:problem=kreska pseudotaktowa	!	!LO:TX:t=P:problem=kreska pseudotaktowa	!	!	!	!	!
1C	-ra	1G	-ra	.	-gk-	2e\	.
!	!	!	!	!LO:TX:t=P:problem=kreska pseudotaktowa	!	!LO:TX:t=P:problem=kreska pseudotaktowa	!
.	.	.	.	2G/	-ra	2A/	-ra
2r	.	2r	.	2.D/	glo-	2.a\	glo-
2.D/	glo-	2d\	glo-	.	.	.	.
!	!	!	!	!LO:TX:t=P:problem=kreska pseudotaktowa	!	!	!
.	.	.	.	4E/	.	4g\	-ri-
=20-	=20-	=20-	=20-	=20-	=20-	=20-	=20-
.	.	2.A/	.	4Fny/	.	2f\	-a
4E\	.	.	.	4G/	.	.	.
*	*	*	*	*custos:A	*	*	*
!	!	!	!	!LO:LB:g=original	!	!LO:TX:t=P:problem=kreska pseudotaktowa	!
4F\	.	.	.	1A	.	2e\	.
!LO:TX:t=P:problem=kreska pseudotaktowa	!	!	!	!	!	!	!
4G\	.	4B\	.	.	.	.	.
!	!	!LO:TX:t=P:problem=# below	!	!	!	!LO:TX:a:t=P:problem=# below	!
2A\	.	2c#X\	.	.	.	2f#X\	tu-
!	!	!LO:TX:t=P:problem=kreska pseudotaktowa	!	!LO:TX:t=P:problem=kreska pseudotaktowa	!	!	!
2D/	-ri-	2d\	-ri-	2A/	-ri-	2g\	.
*	*	*custos:d	*	*	*	*	*
=21-	=21-	=21-	=21-	=21-	=21-	=21-	=21-
!	!	!LO:LB:g=original	!	!	!	!	!
2G\	-a	2.d\	-a	4B\	-a	2d\	-a
.	.	.	.	4A/	.	.	.
!	!	!	!	!	!	!LO:TX:t=P:problem=kreska pseudotaktowa	!
2.GG/	glo-	.	.	4B\	.	2r	.
.	.	4cny\	.	4c\	.	.	.
!	!	!LO:TX:t=P:problem=kreska pseudotaktowa	!	!	!	!	!
.	.	1B	.	2d\	.	1d	Glo-
4AA/	.	.	.	.	.	.	.
4BB/	.	.	.	1d\	glo-	.	.
!LO:TX:t=P:problem=kreska pseudotaktowa	!	!	!	!	!	!	!
4C/	.	.	.	.	.	.	.
=22-	=22-	=22-	=22-	=22-	=22-	=22-	=22-
2D/	.	2r	.	.	.	2d\	-ri-
!LO:TX:t=P:problem=kreska pseudotaktowa	!	!	!	!LO:TX:t=P:problem=kreska pseudotaktowa	!	!	!
2AA/	-ri-	1G	glo-	2d\	-ri-	1e	-a
*custos:C	*	*	*	*	*	*	*
!LO:LB:g=original	!	!	!	!	!	!	!
2.C/	-a	.	.	2c\	-a	.	.
.	.	2C/	-ri-	1c\	tu-	4c/	tu-
!	!	!	!	!	!	!LO:TX:t=P:problem=kreska pseudotaktowa	!
4BB/	.	.	.	.	.	4d\	.
=23-	=23-	=23-	=23-	=23-	=23-	=23-	=23-
1AA	.	2E/	-a	.	.	2.e\	.
.	.	2.E/	tu-	4B\	.	.	.
!	!	!	!	!LO:TX:t=P:problem=kreska pseudotaktowa	!	!	!
.	.	.	.	4A/	.	8d\L	.
.	.	.	.	.	.	8c\J	.
!	!	!	!	!LO:SIC:v:s=2G#/	!	!LO:N:vis=2	!
0E	tu-	.	.	2G/	.	1B	.
!	!	!LO:TX:t=P:problem=# below	!	!	!	!	!
.	.	4F#X/	.	.	.	.	.
!	!	!LO:TX:t=P:problem=# below	!	!	!	!	!
.	.	4G#X/	.	1A\	.	.	.
.	.	4A/	.	.	.	.	.
=24-	=24-	=24-	=24-	=24-	=24-	=24-	=24-
!	!	!	!	!	!	!LO:N:vis=2	!
.	.	2B\	.	.	.	1e	.
!	!	!	!	!LO:SIC:v:s=2G#/	!	!	!
.	.	2B\	.	2G/	.	.	.
!	!	!LO:TX:t=P:problem=# below	!	!	!	!	!
1AA	-a.	1c#X	-a	1A	-a.	1e	-a
=25||-	=25||-	=25||-	=25||-	=25||-	=25||-	=25||-	=25||-
*M3/2	*	*M3/2	*	*M3/2	*	*M3/2	*
!!LO:TX:t=P:problem:pierwsza litera zapisana czerwonym atramentem
!	!	!LO:TX:t=P:problem=# below	!	!	!	!	!
1A	O-	1c#X	O-	1A	O-	1e	O-
1A	-ſan-	1c#	-ſan-	1A	-ſan-	1e	-ſan-
!LO:TX:t=P:problem=kreska pseudotaktowa	!	!LO:TX:t=P:problem=kreska pseudotaktowa	!	!LO:TX:t=P:problem=kreska pseudotaktowa	!	!LO:TX:t=P:problem=kreska pseudotaktowa	!
1A	-na	1c#	-na	1A	-na	1e	-na
=26-	=26-	=26-	=26-	=26-	=26-	=26-	=26-
1.G	in	0d	in	0B	in	1.g	in
2F\	.	.	.	.	.	2a\	.
!	!	!	!	!	!	!LO:TX:t=P:problem=kreska pseudotaktowa	!
1E	.	1e	ex-	1c	ex-	1g	.
*	*	*	*	*	*	*custos:f	*
=27-	=27-	=27-	=27-	=27-	=27-	=27-	=27-
*lig	*	*	*	*lig	*	*col	*
!	!	!	!	!	!	!LO:LB:g=original	!
1F	ex-	0d	-cel-	1A	-cel-	1fny	ex-
1G	.	.	.	1B	.	0e	-cel-
*Xlig	*	*	*	*Xlig	*	*Xcol	*
!LO:TX:t=P:problem=kreska pseudotaktowa	!	!LO:TX:t=P:problem=# below	!	!	!	!	!
1A	-cel-	1c#X	.	1A	.	.	.
=28-	=28-	=28-	=28-	=28-	=28-	=28-	=28-
!LO:TX:t=P:problem=kreska pseudotaktowa	!	!LO:TX:t=P:problem=kreska pseudotaktowa	!	!LO:TX:t=P:problem=kreska pseudotaktowa	!	!LO:TX:t=P:problem=kreska pseudotaktowa	!
!	!	!	!	!	!	!LO:TX:a:t=P:problem=# below	!
0.D	-ſis	0.d	-ſis.	0.A	-ſis.	0.f#X	-sis
=29-	=29-	=29-	=29-	=29-	=29-	=29-	=29-
1D	O-	1A	O-	1F	O-	1d	O-
1D	-ſan-	1A	-ſan-	1F	-ſan-	1d	-ſan-
1D	-na	1A	-na	1F	-na	1d	-na
*	*	*	*	*custos:G	*	*	*
=30-	=30-	=30-	=30-	=30-	=30-	=30-	=30-
!	!	!	!	!LO:PB:g=original	!	!	!
1.C	in	1.cny	in	0G	in	0e	in
2BB/	.	2d\	.	.	.	.	.
!	!	!	!	!	!	!LO:TX:t=P:problem=kreska pseudotaktowa	!
1AA	.	1c	.	1A	ex-	1fny	ex-
*	*	*custos:c	*	*	*	*	*
=31-	=31-	=31-	=31-	=31-	=31-	=31-	=31-
*	*	*col	*	*	*	*lig	*
!	!	!LO:LB:g=original	!	!	!	!	!
1C	ex-	1c	ex-	0A	-cel-	1e	-cel-
*lig	*	*	*	*	*	*	*
1D	-cel-	0B	-cel-	.	.	1f	.
*	*	*	*	*	*	*Xlig	*
!	!	!	!	!LO:TX:t=P:problem=# below	!	!	!
1E	.	.	.	1G#X	.	1e	.
*Xlig	*	*Xcol	*	*	*	*	*
=32-	=32-	=32-	=32-	=32-	=32-	=32-	=32-
!LO:TX:t=P:problem=kreska pseudotaktowa	!	!LO:TX:t=P:problem=kreska pseudotaktowa	!	!LO:TX:t=P:problem=kreska pseudotaktowa	!	!LO:TX:t=P:problem=kreska pseudotaktowa	!
0.AA	-ſis	0.A	-ſis	0.A	-ſis.	0.e	-ſis
=33-	=33-	=33-	=33-	=33-	=33-	=33-	=33-
!	!	!	!	!	!	!LO:N:vis=0	!
1FF	O-	1A	O-	1c	O-	0.r	.
1FF	-ſan-	1A	-ſan-	1c	-ſan-	.	.
!	!	!	!	!LO:TX:t=P:problem=kreska pseudotaktowa	!	!	!
1FF	-na	1A	-na	1c	-na	.	.
*custos:C	*	*	*	*	*	*	*
=34-	=34-	=34-	=34-	=34-	=34-	=34-	=34-
!LO:LB:g=original	!	!	!	!	!	!	!
0C	in	1.Gny	in	0c	in	0.e	O-
.	.	2Fny/	.	.	.	.	.
1C	ex-	1E	.	1c	ex-	.	.
=35-	=35-	=35-	=35-	=35-	=35-	=35-	=35-
*	*	*col	*	*	*	*	*
1.GG	-cel-	1D	ex-	2B\	-cel-	0g	-ſan-
.	.	.	.	2A/	.	.	.
.	.	0G	-cel-	2B\	.	.	.
2AA/	.	.	.	2c\	.	.	.
!LO:TX:t=P:problem=kreska pseudotaktowa	!	!	!	!LO:TX:t=P:problem=kreska pseudotaktowa	!	!	!
1BB	.	.	.	1d	.	1g	-na
*	*	*Xcol	*	*	*	*	*
=36-	=36-	=36-	=36-	=36-	=36-	=36-	=36-
0C	.	0G	-ſis	0c	-ſis	0.e	in
!	!	!LO:TX:t=P:problem=kreska pseudotaktowa	!	!	!	!	!
1AA	.	1A	in	1c	in	.	.
=37-	=37-	=37-	=37-	=37-	=37-	=37-	=37-
*col	*	*	*	*col	*	*col	*
1D	.	1.A	ex-	1A	ex-	1f	ex-
0AA	.	.	.	0A	-cel-	0e	-cel-
.	.	4G/	.	.	.	.	.
.	.	4F/	.	.	.	.	.
.	.	2E/	.	.	.	.	.
.	.	2A/	-cel-	.	.	.	.
*Xcol	*	*	*	*Xcol	*	*Xcol	*
=38-	=38-	=38-	=38-	=38-	=38-	=38-	=38-
0.Dl	-ſis.	0.F#Xl	-ſis	0.Al	-ſis.	0.dl	-ſis
!LO:LB:g=original	!	!LO:PB:g=original	!	!LO:LB:g=original	!	!	!
=39||-	=39||-	=39||-	=39||-	=39||-	=39||-	=39||-	=39||-
*M2/1	*	*M2/1	*	*M2/1	*	*M2/1	*
*met(C|)	*	*met(C|)	*	*met(C|)	*	*met(C|)	*
!!LO:TX:t=P:problem:pierwsza litera zapisana czerwonym atramentem
!	!	!	!	!LO:TX:t=P:problem=kreska pseudotaktowa	!	!LO:LB:g=original	!
00r	.	00r	.	1r	.	1.A	BE-
.	.	.	.	1.D	BE-	.	.
!	!	!	!	!	!	!LO:TX:t=P:problem=kreska pseudotaktowa	!
.	.	.	.	.	.	2A/	-ne-
=40-	=40-	=40-	=40-	=40-	=40-	=40-	=40-
.	.	.	.	.	.	1d	-di-
!	!	!	!	!LO:TX:t=P:problem=kreska pseudotaktowa	!	!	!
.	.	.	.	2D/	-ne-	.	.
.	.	.	.	1Gny	-di-	2B/	-ctus
!	!	!	!	!	!	!LO:TX:t=P:problem=kreska pseudotaktowa	!
.	.	.	.	.	.	2B/	q(ui)
=41-	=41-	=41-	=41-	=41-	=41-	=41-	=41-
!LO:TX:t=P:problem=kreska pseudotaktowa	!	!	!	!	!	!	!
1r	.	00r	.	2E/	-ctus	2.e\	Ve-
.	.	.	.	2E/	q(ui)	.	.
.	.	.	.	.	.	4d\	.
2r	.	.	.	1A	Ve-	4c/	.
.	.	.	.	.	.	4B/	.
1AA/	BE-	.	.	.	.	2.c/	.
=42-	=42-	=42-	=42-	=42-	=42-	=42-	=42-
.	.	.	.	2E/	-nit	.	.
.	.	.	.	.	.	4B/	.
!	!	!	!	!	!	!LO:TX:t=P:problem=# below	!
2AA/	-ne-	.	.	1A	Be-	2c#X/	.
1D	-di-	.	.	.	.	2d\	-nit
!	!	!	!	!LO:TX:t=P:problem=kreska pseudotaktowa	!	!	!
.	.	.	.	2A/	-ne-	1d\	Be-
=43-	=43-	=43-	=43-	=43-	=43-	=43-	=43-
2BB/	-ctu(s)	0r	.	1d	-di-	.	.
!	!	!	!	!	!	!LO:TX:t=P:problem=kreska pseudotaktowa	!
2BB/	q(ui)	.	.	.	.	2d\	-ne-
2.E\	Ve-	.	.	2B\	-ctus	1g	-di-
.	.	.	.	2B\	q(ui)	.	.
!LO:TX:t=P:problem=kreska pseudotaktowa	!	!	!	!	!	!	!
4D/	.	.	.	.	.	.	.
=44-	=44-	=44-	=44-	=44-	=44-	=44-	=44-
!	!	!LO:TX:t=P:problem=kreska pseudotaktowa	!	!	!	!	!
*	*	*	*	*lig	*	*	*
4C/	.	1r	.	1c	Ve-	1e	-ctus
4BB/	.	.	.	.	.	.	.
4C/	.	.	.	.	.	.	.
4AA/	.	.	.	.	.	.	.
2.D/	.	0D	BE-	1A	.	2f\	q(ui)
.	.	.	.	.	.	1a\	Ve-
!LO:TX:t=P:problem=kreska pseudotaktowa	!	!	!	!	!	!	!
4C/	.	.	.	.	.	.	.
*	*	*	*	*Xlig	*	*	*
=45-	=45-	=45-	=45-	=45-	=45-	=45-	=45-
4BB/	.	.	.	2B\	.	.	.
4AA/	.	.	.	.	.	.	.
!	!	!	!	!	!	!LO:TX:t=P:problem=kreska pseudotaktowa	!
2BB/	.	.	.	1d	.	2g\	.
2.AA/	.	0A	-ne-	.	.	2f\	.
!	!	!	!	!LO:TX:t=P:problem=kreska pseudotaktowa	!	!	!
!	!	!	!	!LO:TX:t=P:problem=# below	!	!	!
.	.	.	.	2c#X\	-nit	4e\	.
4BB/	.	.	.	.	.	4d\	.
=46-	=46-	=46-	=46-	=46-	=46-	=46-	=46-
!LO:TX:t=P:problem=# below	!	!	!	!	!	!	!
2C#X/	.	.	.	2r	.	2e\	.
!	!	!	!	!	!	!LO:TX:t=P:problem=kreska pseudotaktowa	!
!	!	!	!	!	!	!LO:TX:t=P:problem=# below	!
2D/	.	.	.	1d	Be-	2f#X\	-nit
!LO:TX:t=P:problem=kreska pseudotaktowa	!	!	!	!	!	!	!
0GG	-nit	0B	-di-	.	.	2g\	qui
!	!	!	!	!LO:TX:t=P:problem=kreska pseudotaktowa	!	!	!
.	.	.	.	2D/	-ne-	2.d\	Ve-
=47-	=47-	=47-	=47-	=47-	=47-	=47-	=47-
.	.	.	.	1G	-di-	.	.
.	.	.	.	.	.	4cny/	.
*	*	*	*	*	*	*custos:B	*
!	!	!	!	!	!	!LO:PB:g=original	!
.	.	.	.	.	.	4B/	.
!	!	!	!	!	!	!LO:TX:t=P:problem=kreska pseudotaktowa	!
.	.	.	.	.	.	4A/	.
0r	.	0G	-ctus	2E/	-ctus	2B/	.
!	!	!	!	!LO:TX:t=P:problem=kreska pseudotaktowa	!	!	!
.	.	.	.	2C/	q(ui)	1e\	.
=48-	=48-	=48-	=48-	=48-	=48-	=48-	=48-
.	.	.	.	4E/	Ve-	.	.
.	.	.	.	4F/	.	.	.
*	*	*	*	*custos:G	*	*	*
!	!	!	!	!LO:LB:g=original	!	!	!
.	.	.	.	1G	.	4d\	.
.	.	.	.	.	.	4c/	.
!	!	!	!	!	!	!LO:TX:t=P:problem=kreska pseudotaktowa	!
1.D	Be-	0A	qui	.	.	1d	-nit
!	!	!	!	!LO:TX:t=P:problem=# below	!	!	!
.	.	.	.	4F#X/	.	.	.
!	!	!	!	!LO:TX:t=P:problem=kreska pseudotaktowa	!	!	!
.	.	.	.	4E/	.	.	.
=49-	=49-	=49-	=49-	=49-	=49-	=49-	=49-
!	!	!	!	!LO:TX:t=P:problem=# below	!	!	!
.	.	.	.	1F#X	.	2r	.
!LO:TX:t=P:problem=kreska pseudotaktowa	!	!	!	!	!	!	!
2D/	-ne-	.	.	.	.	2d\	Be-
1G	-di-	0B	.	2G/	-nit	2d\	-ne-
.	.	.	.	2d\	q(ui)	1g\	-di-
=50-	=50-	=50-	=50-	=50-	=50-	=50-	=50-
2E\	-ctus	.	.	1.e	Ve-	.	.
!LO:TX:t=P:problem=kreska pseudotaktowa	!	!	!	!	!	!LO:TX:t=P:problem=kreska pseudotaktowa	!
2E\	q(ui)	.	.	.	.	2e\	-ctus
*custos:A	*	*	*	*	*	*	*
!LO:LB:g=original	!	!	!	!	!	!	!
2.A\	Ve-	0c	.	.	.	2e\	q(ui)
!	!	!	!	!LO:TX:t=P:problem=kreska pseudotaktowa	!	!	!
.	.	.	.	2A/	-nit	2.a\	Ve-
!LO:TX:t=P:problem=kreska pseudotaktowa	!	!	!	!	!	!	!
4G\	.	.	.	.	.	.	.
=51-	=51-	=51-	=51-	=51-	=51-	=51-	=51-
4F\	.	.	.	2r	.	.	.
4E\	.	.	.	.	.	4g\	.
2F\	.	.	.	2A/	Be-	4fny\	.
!	!	!	!	!	!	!LO:TX:t=P:problem=kreska pseudotaktowa	!
.	.	.	.	.	.	4e\	.
2D/	-nit	0d	.	2A/	-ne-	1f	-nit
!LO:TX:t=P:problem=kreska pseudotaktowa	!	!	!	!LO:TX:t=P:problem=kreska pseudotaktowa	!	!	!
2D/	q(ui)	.	.	2d\	-di-	.	.
=52-	=52-	=52-	=52-	=52-	=52-	=52-	=52-
2.G\	Ve-	.	.	2B\	-ctus	2d\	qui
.	.	.	.	2B\	q(ui)	2.g\	Ve-
4F\	.	.	.	.	.	.	.
4E\	.	0c	.	2.e\	Ve-	.	.
4D/	.	.	.	.	.	4f\	.
4Cny/	.	.	.	.	.	1e\	.
!LO:TX:t=P:problem=kreska pseudotaktowa	!	!	!	!LO:TX:t=P:problem=kreska pseudotaktowa	!	!	!
4BB/	.	.	.	4d\	.	.	.
=53-	=53-	=53-	=53-	=53-	=53-	=53-	=53-
4AA/	.	.	.	2cny\	.	.	.
4GG/	.	.	.	.	.	.	.
!	!	!	!	!	!	!LO:TX:t=P:problem=kreska pseudotaktowa	!
!	!	!	!	!	!	!LO:TX:t=P:problem=# below	!
2AA/	.	.	.	2A/	-nit	2f#X\	.
!LO:TX:t=P:problem=kreska pseudotaktowa	!	!	!	!	!	!	!
0GG	-nit	0B	.	2r	.	0g	.
!	!	!	!	!LO:TX:t=P::problem=kreska pseudotaktowa&colon;między nutą a kropką	!	!	!
.	.	.	.	[y2d\	q(ui)	.	.
=54-	=54-	=54-	=54-	=54-	=54-	=54-	=54-
!	!	!	!	!LO:N:xstem:cue	!	!	!
.	.	.	.	4d\]	.	.	.
.	.	.	.	4c\	.	.	.
.	.	.	.	2B\	.	.	.
!	!	!	!	!	!	!LO:TX:t=P:problem=kreska pseudotaktowa	!
2r	.	1A	.	4c\	Ve-	0.e	-nit
.	.	.	.	4B\	.	.	.
2AA/	q(ui)	.	.	4c\	.	.	.
.	.	.	.	4d\	.	.	.
=55-	=55-	=55-	=55-	=55-	=55-	=55-	=55-
*lig	*	*	*	*	*	*	*
1AA	Ve-	1.A	Ve-	2e\	.	.	.
!	!	!	!	!LO:TX:t=P:problem=kreska pseudotaktowa	!	!	!
.	.	.	.	2E/	-nit	.	.
1E	.	.	.	2r	.	.	.
!	!	!LO:TX:t=P:problem=# below	!	!	!	!	!
.	.	2G#X/	.	2e\	in	.	.
*Xlig	*	*	*	*	*	*	*
=56-	=56-	=56-	=56-	=56-	=56-	=56-	=56-
!LO:TX:t=P:problem=kreska pseudotaktowa	!	!LO:TX:t=P:problem=kreska pseudotaktowa	!	!	!	!	!
1AA	-nit	0A	-nit	2e\	no-	2r	.
!	!	!	!	!LO:TX:t=P:problem=kreska pseudotaktowa	!	!LO:TX:t=P:problem=kreska pseudotaktowa	!
.	.	.	.	2e\	-mi-	2e\	in
2r	.	.	.	2A/	-ne	2e\	no-
*	*	*	*	*custos:e	*	*	*
!	!	!	!	!LO:LB:g=original	!	!	!
2A\	in	.	.	4e\	Do-	2e\	-mi-
!	!	!	!	!LO:TX:t=P:problem=kreska pseudotaktowa	!	!	!
.	.	.	.	4d\	.	.	.
=57-	=57-	=57-	=57-	=57-	=57-	=57-	=57-
2A\	no-	0r	.	4c\	.	2A/	-ne
.	.	.	.	4B\	.	.	.
!LO:TX:t=P:problem=kreska pseudotaktowa	!	!	!	!	!	!	!
2A\	-mi-	.	.	2.A/	.	4a\	Do-
!	!	!	!	!	!	!LO:TX:t=P:problem=kreska pseudotaktowa	!
.	.	.	.	.	.	4g\	.
*	*	*	*	*	*	*custos:f	*
!	!	!	!	!	!	!LO:LB:g=original	!
1D	-ne	.	.	.	.	4fny\	.
.	.	.	.	8B\L	.	4e\	.
.	.	.	.	8c\J	.	.	.
!	!	!	!	!LO:TX:t=P:problem=przekreślona synkopowana wartość	!	!	!
.	.	.	.	1d\	.	4f\	.
!	!	!	!	!	!	!LO:TX:t=P:problem=kreska pseudotaktowa	!
.	.	.	.	.	.	4d\	.
=58-	=58-	=58-	=58-	=58-	=58-	=58-	=58-
*	*	*	*	*	*	*lig	*
2.A\	Do-	2r	.	.	.	1e	.
!	!	!LO:TX:t=P:problem=kreska pseudotaktowa	!	!	!	!	!
.	.	2A/	in	4c\	.	.	.
!	!	!	!	!LO:TX:t=P:problem=kreska pseudotaktowa	!	!	!
4G\	.	.	.	4B\	.	.	.
*	*	*	*	*	*	*col	*
4F\	.	2A/	no-	2c\	.	2.f\	.
4E\	.	.	.	.	.	.	.
!LO:TX:t=P::problem=kreska pseudotaktowa&colon;między nutą a kropką	!	!	!	!	!	!	!
[y2D/	.	2A/	-mi-	2.d\	.	.	.
*	*	*	*	*	*	*Xlig	*
!	!	!	!	!	!	!LO:TX:t=P:problem=kreska pseudotaktowa	!
.	.	.	.	.	.	4g\	.
*	*	*	*	*	*	*Xcol	*
=59-	=59-	=59-	=59-	=59-	=59-	=59-	=59-
!LO:N:xstem:cue	!	!LO:TX:t=P:problem=kreska pseudotaktowa	!	!	!	!	!
4D/]	.	1D	-ne	.	.	2a\	.
8E\L	.	.	.	4c\	.	.	.
8F\J	.	.	.	.	.	.	.
!	!	!	!	!LO:TX:t=P:problem=kreska pseudotaktowa	!	!	!
1G	.	.	.	2B\	.	2g\	-mi-
*	*	*custos:A	*	*	*	*	*
!	!	!LO:LB:g=original	!	!	!	!	!
.	.	2.A/	do-	2A/	.	2d\	-ni
!LO:TX:t=P:problem=kreska pseudotaktowa	!	!	!	!	!	!	!
2F\	.	.	.	2A/	-mi-	1a\	Do-
.	.	4Gny/	.	.	.	.	.
=60-	=60-	=60-	=60-	=60-	=60-	=60-	=60-
*lig	*	*	*	*	*	*	*
!	!	!	!	!LO:TX:t=P:problem=kreska pseudotaktowa	!	!	!
1B	.	4Fny/	.	1d	-ni	.	.
.	.	4E/	.	.	.	.	.
!	!	!	!	!	!	!LO:TX:t=P:problem=kreska pseudotaktowa	!
.	.	1D	.	.	.	2g\	.
*col	*	*	*	*	*	*	*
!	!	!	!	!	!	!LO:TX:t=P:problem=# below	!
2.A\	.	.	.	2r	.	2f#X\	.
.	.	2C#X/	-mi-	2A/	in	2e\	.
*Xlig	*	*	*	*	*	*	*
!LO:TX:t=P:problem=kreska pseudotaktowa	!	!	!	!	!	!	!
4A\	-mi-	.	.	.	.	.	.
*Xcol	*	*	*	*	*	*	*
*custos:D	*	*	*	*	*	*	*
=61-	=61-	=61-	=61-	=61-	=61-	=61-	=61-
!LO:PB:g=original	!	!	!	!	!	!	!
1D	-ni	1D	-ni	2A/	no-	1.f#yX	.
!	!	!	!	!LO:TX:t=P:problem=kreska pseudotaktowa	!	!	!
.	.	.	.	2A/	-mi-	.	.
!	!	!LO:TX:t=P:problem=kreska pseudotaktowa	!	!	!	!	!
2r	.	0A	in	2D/	-ne	.	.
!LO:TX:t=P:problem=kreska pseudotaktowa	!	!	!	!	!	!	!
2D/	in	.	.	4A/	Do-	2f#\	-mi-
!	!	!	!	!LO:TX:t=P:problem=kreska pseudotaktowa	!	!	!
.	.	.	.	4G/	.	.	.
=62-	=62-	=62-	=62-	=62-	=62-	=62-	=62-
!	!	!	!	!	!	!LO:TX:t=P:problem=kreska pseudotaktowa	!
2D/	no-	.	.	4Fny/	.	1d	-ni
.	.	.	.	4E/	.	.	.
2D/	-mi-	.	.	4F/	.	.	.
.	.	.	.	4D/	.	.	.
1AA	-ne	0A	no-	1E	.	1r	.
=63-	=63-	=63-	=63-	=63-	=63-	=63-	=63-
2.D/	Do-	.	.	1F#X	-mi-	2r	.
!	!	!	!	!	!	!LO:TX:t=P:problem=kreska pseudotaktowa	!
.	.	.	.	.	.	2d\	in
4C/	.	.	.	.	.	.	.
!	!	!	!	!LO:TX:t=P:problem=kreska pseudotaktowa	!	!	!
4BB/	.	0D	-mi-	1G	-ni	2d\	no-
4AA/	.	.	.	.	.	.	.
1GG/	.	.	.	.	.	2d\	-mi-
=64-	=64-	=64-	=64-	=64-	=64-	=64-	=64-
.	.	.	.	2r	.	2G/	-ne
!LO:TX:t=P:problem=kreska pseudotaktowa	!	!	!	!	!	!	!
2BB/	-mi-	.	.	2G/	in	1g	Do-
2C/	-ni	0E	-ne	2G/	no-	.	.
!	!	!	!	!LO:TX:t=P:problem=kreska pseudotaktowa	!	!LO:TX:t=P:problem=kreska pseudotaktowa	!
2G\	in	.	.	2G/	-mi-	2e\	-mi-
=65-	=65-	=65-	=65-	=65-	=65-	=65-	=65-
2G\	no-	.	.	2C/	-ne	2e\	-ni
!LO:TX:t=P:problem=kreska pseudotaktowa	!	!	!	!	!	!	!
2G\	-mi-	.	.	1c	Do-	2g\	in
2C/	-ne,	0G	do-	.	.	2g\	no-
*	*	*	*	*custos:B	*	*	*
!	!	!	!	!LO:LB:g=original	!	!	!
!	!	!	!	!LO:TX:t=P:problem=kreska pseudotaktowa	!	!LO:TX:t=P:problem=kreska pseudotaktowa	!
2G\	in	.	.	2B\	-mi-	2g\	-mi-
=66-	=66-	=66-	=66-	=66-	=66-	=66-	=66-
2G\	no-	.	.	2B\	-ni	1.d	-ne
!LO:TX:t=P:problem=kreska pseudotaktowa	!	!	!	!	!	!	!
2GG/	-mi-	.	.	2d\	in	.	.
2D/	-ne,	0F	.	2d\	no-	.	.
!	!	!	!	!LO:TX:t=P:problem=kreska pseudotaktowa	!	!	!
2D/	in	.	.	2d\	-mi-	4a\	Do-
!	!	!	!	!	!	!LO:TX:t=P:problem=kreska pseudotaktowa	!
.	.	.	.	.	.	4g\	.
*	*	*	*	*	*	*custos:f	*
=67-	=67-	=67-	=67-	=67-	=67-	=67-	=67-
!	!	!	!	!	!	!LO:LB:g=original	!
2D/	no-	.	.	2A/	-ne	4fny\	.
.	.	.	.	.	.	4e\	.
!LO:TX:t=P:problem=kreska pseudotaktowa	!	!	!	!	!	!	!
2D/	-mi-	.	.	2A/	in	1d	.
0AA	-ne	0E	.	2A/	no-	.	.
!	!	!	!	!LO:TX:t=P:problem=kreska pseudotaktowa	!	!LO:TX:t=P:problem=# below	!
.	.	.	.	2A/	-mi-	4c#X/	.
!	!	!	!	!	!	!LO:TX:t=P:problem=kreska pseudotaktowa	!
.	.	.	.	.	.	4B/	.
=68-	=68-	=68-	=68-	=68-	=68-	=68-	=68-
.	.	.	.	2E/	-ne	2c#yX/	.
.	.	.	.	2.A/	Do-	2c#/	-mi-
2.D/	Do-	0.D	.	.	.	2d\	-ni
.	.	.	.	4G/	.	.	.
!	!	!	!	!	!	!LO:TX:t=P:problem=kreska pseudotaktowa	!
.	.	.	.	4Fny/	.	2A/	in
4C/	.	.	.	8E/L	.	.	.
!	!	!	!	!LO:TX:t=P:problem=kreska pseudotaktowa	!	!	!
.	.	.	.	8D/J	.	.	.
=69-	=69-	=69-	=69-	=69-	=69-	=69-	=69-
4BB-X/	.	.	.	2.d\	.	2B-X/	no-
4AA/	.	.	.	.	.	.	.
1GG	.	.	.	.	.	4B-/	-mi-
.	.	.	.	4c\	.	4G/	-ne
.	.	.	.	2B-X\	.	2.d\	Do-
!LO:TX:t=P:problem=kreska pseudotaktowa	!	!	!	!LO:TX:t=P:problem=kreska pseudotaktowa	!	!	!
!LO:TX:t=P:problem=# below	!	!	!	!	!	!	!
2FF#X/	.	.	.	2A/	.	.	.
.	.	.	.	.	.	4cny/	.
=70-	=70-	=70-	=70-	=70-	=70-	=70-	=70-
1.GG	.	0D	-mi-	2.G/	.	4B-X/	.
.	.	.	.	.	.	8A/L	.
.	.	.	.	.	.	8G/J	.
.	.	.	.	.	.	1d	.
.	.	.	.	4A/	.	.	.
.	.	.	.	2B-X\	.	.	.
2GG/	-mi-	.	.	2B-\	-mi-	2d\	-mi-
=71-	=71-	=71-	=71-	=71-	=71-	=71-	=71-
0Dl	-ni.	0Dl	-ni.	0Al	-ni	0dl	-ni.
!LO:TX:a:t=Oſanna vt\nſupra.:color=red	!	!LO:TX:a:t=Osanna ut supra	!	!LO:TX:a:t=Osanna da Capo.	!	!LO:TX:a:t=Osanna da Capo	!
==	==	==	==	==	==	==	==
*-	*-	*-	*-	*-	*-	*-	*-
!!!system-decoration: [s1,s2,s3,s4]
!!!RDF**kern: > = above
!!!RDF**kern: < = below
!!!RDF**kern: l = terminal long
!!!ENC: Katarzyna Serwa
!!!END: 2022-01-07
!!!ENC: Andrzej Gręziak
!!!END: 2022-01-06
!!!YEC: Copyright 2022 Narodowy Instytut Fryderyka Chopina (https://polishscores.org)
!!!YEM: Licence CC BY 4.0 (https://creativecommons.org/licenses/by/4.0)
